X: 1890
T: Stan Treacy's Schottische
B: australian traditional tunes wiki
B: kameruka bush dance
B: to learn
M:4/4
L:1/8
R: Schottische
Q: 1/4=100
K:D
V:1 
a2|:"D"(3aba f>d A>d f>a|(3agf g>f"G"g2-(3gef|"A7"(3gfe c>e A>c e>f|
(3gag f>e"D"f2a2|"D"(3aba f>d A>d f>a|(3agf g>a"G" b2-b>e|
"A7"c>d e>f a>g  e<c|"D"d2d2d2- (3dcB:||:"D"A>F D>FA2-A>d|
"G"B<G G>AB2-B>e|"A7"c>d e>f a>g e<c|"D"d>e f>dA2-A>B|
"D"A<F D>FA2-A>d|"G"B<G G>AB2-B>e|"A7"c>d e>f a>g e<c|"D"d2d2d2 z2:|
% abcbook-tune_id 6342d53a9dfd9512569a7d24


% abcbook-boost 0
% abcbook-tablature 
% abcbook-transpose 
% abcbook-lastupdated 1666009923802
% abcbook-soundfonts 
% abcbook-repeats 3
% NFF Book 2006

